images/icons/v2/timer-35-12.svg

<svg height="12" viewBox="0 0 12 12" width="12" xmlns="http://www.w3.org/2000/svg"><path d="m1.04 6.5h-1.014a6.07 6.07 0 0 1 0-1h1.015a4.915 4.915 0 0 0 -.001 1zm-.464-3.055.88.508a4.959 4.959 0 0 1 .5-.866l-.879-.507a6.014 6.014 0 0 0 -.501.865zm0 5.11a6 6 0 0 0 .5.866l.889-.513a4.966 4.966 0 0 1 -.5-.866zm2-7.481.513.889a5.008 5.008 0 0 1 .866-.5l-.51-.888a6.057 6.057 0 0 0 -.866.499zm4.977-.874a6 6 0 0 0 -2.053-.174v1.014a4.994 4.994 0 1 1 -.794 9.79 4.961 4.961 0 0 1 -1.619-.784l-.507.877a6 6 0 1 0 4.973-10.723zm-1.178 5.15a.751.751 0 0 0 -1.025.275l-1.566 3.714.432.25 2.434-3.214a.751.751 0 0 0 -.275-1.025z"/></svg>

<svg xmlns="http://www.w3.org/2000/svg" width="12" height="12" viewBox="0 0 12 12"><title>timer-35-12</title><path d="M1.04,6.5H.026a6.07,6.07,0,0,1,0-1H1.041A4.915,4.915,0,0,0,1.04,6.5ZM.576,3.445l.88.508a4.959,4.959,0,0,1,.5-.866L1.077,2.58A6.014,6.014,0,0,0,.576,3.445Zm0,5.11a6,6,0,0,0,.5.866l.889-.513a4.966,4.966,0,0,1-.5-.866Zm2-7.481.513.889a5.008,5.008,0,0,1,.866-.5L3.445.575A6.057,6.057,0,0,0,2.579,1.074ZM7.553.2A6,6,0,0,0,5.5.026V1.04a4.994,4.994,0,1,1-.794,9.79,4.961,4.961,0,0,1-1.619-.784l-.507.877A6,6,0,1,0,7.553.2ZM6.375,5.35a.751.751,0,0,0-1.025.275L3.784,9.339l.432.25L6.65,6.375A.751.751,0,0,0,6.375,5.35Z"/></svg>
